nextcloudappstore/core/static/assets/img/icons/categories/monitor-eye.svg

<svg width="20" height="20" fill="none" style="-webkit-print-color-adjust:exact" version="1.1" viewBox="-0 0 20 20" xmlns="http://www.w3.org/2000/svg"><g rx="0" ry="0" fill="#000"><g class="fills"><path rx="0" ry="0" d="m2.5 3.333v10h15v-10h-15zm0-1.666h15c0.917 0 1.667 0.741 1.667 1.666v10c0 0.442-0.175 0.867-0.492 1.175-0.308 0.317-0.733 0.492-1.175 0.492h-5.833v1.667h1.666v1.666h-6.666v-1.666h1.666v-1.667h-5.833c-0.442 0-0.867-0.175-1.175-0.492-0.317-0.308-0.492-0.733-0.492-1.175v-10c0-0.925 0.742-1.666 1.667-1.666zm6.533 5.775c0.259-0.25 0.609-0.4 0.967-0.4 0.358 8e-3 0.708 0.15 0.967 0.408 0.25 0.25 0.4 0.6 0.4 0.958 0 0.367-0.15 0.709-0.4 0.967-0.259 0.258-0.609 0.4-0.967 0.4s-0.708-0.15-0.967-0.4c-0.25-0.258-0.4-0.6-0.4-0.967 0-0.358 0.15-0.708 0.4-0.966zm-0.641 2.558c0.425 0.442 1.008 0.683 1.608 0.683s1.183-0.241 1.608-0.683c0.425-0.417 0.667-0.992 0.667-1.592s-0.242-1.183-0.667-1.608-1.008-0.667-1.608-0.667-1.183 0.242-1.608 0.667-0.667 1.008-0.667 1.608 0.242 1.175 0.667 1.592zm-3.392-1.592c0.783-1.991 2.725-3.408 5-3.408s4.217 1.417 5 3.408c-0.783 2.009-2.725 3.409-5 3.409s-4.217-1.4-5-3.409z" fill="#007bbd"/></g></g></svg>

<svg xmlns:xlink="http://www.w3.org/1999/xlink" width="20" xmlns="http://www.w3.org/2000/svg" height="20" id="screenshot-db15cf86-6f9e-8025-8002-bbab9ed6fde8" viewBox="-0 0 20 20" style="-webkit-print-color-adjust: exact;" fill="none" version="1.1"><g id="shape-db15cf86-6f9e-8025-8002-bbab9ed6fde8" rx="0" ry="0" style="fill: rgb(0, 0, 0);"><g id="shape-db15cf86-6f9e-8025-8002-bbab9ed6fdea"><g class="fills" id="fills-db15cf86-6f9e-8025-8002-bbab9ed6fdea"><path rx="0" ry="0" d="M2.500,3.333L2.500,13.333L17.500,13.333L17.500,3.333L2.500,3.333ZM2.500,1.667L17.500,1.667C18.417,1.667,19.167,2.408,19.167,3.333L19.167,13.333C19.167,13.775,18.992,14.200,18.675,14.508C18.367,14.825,17.942,15.000,17.500,15.000L11.667,15.000L11.667,16.667L13.333,16.667L13.333,18.333L6.667,18.333L6.667,16.667L8.333,16.667L8.333,15.000L2.500,15.000C2.058,15.000,1.633,14.825,1.325,14.508C1.008,14.200,0.833,13.775,0.833,13.333L0.833,3.333C0.833,2.408,1.575,1.667,2.500,1.667ZM9.033,7.442C9.292,7.192,9.642,7.042,10.000,7.042C10.358,7.050,10.708,7.192,10.967,7.450C11.217,7.700,11.367,8.050,11.367,8.408C11.367,8.775,11.217,9.117,10.967,9.375C10.708,9.633,10.358,9.775,10.000,9.775C9.642,9.775,9.292,9.625,9.033,9.375C8.783,9.117,8.633,8.775,8.633,8.408C8.633,8.050,8.783,7.700,9.033,7.442ZM8.392,10.000C8.817,10.442,9.400,10.683,10.000,10.683C10.600,10.683,11.183,10.442,11.608,10.000C12.033,9.583,12.275,9.008,12.275,8.408C12.275,7.808,12.033,7.225,11.608,6.800C11.183,6.375,10.600,6.133,10.000,6.133C9.400,6.133,8.817,6.375,8.392,6.800C7.967,7.225,7.725,7.808,7.725,8.408C7.725,9.008,7.967,9.583,8.392,10.000ZM5.000,8.408C5.783,6.417,7.725,5.000,10.000,5.000C12.275,5.000,14.217,6.417,15.000,8.408C14.217,10.417,12.275,11.817,10.000,11.817C7.725,11.817,5.783,10.417,5.000,8.408ZZ" style="fill: rgb(0, 123, 189); fill-opacity: 1;"/></g></g></g></svg>
